X: 1176
T:The Swallow's Tail (A74)
N: page A74
N: heptatonic
N: matches 225
R: Jig
% Nottingham Music Database
M: 6/8
L: 1/8
K: Edor
E/F/|"Em"GEE BEE|GEE BAG|"Bm"FDD "D"ADD|"G"ded "D"=cAF|"Em"GEE BEE|
GEE d2 c|"G"ded "D"=cAF|"Em"GEE E2:|z|:"G"Bcd "Em"e2f|e2f edc|"G"Bcd "Em"e2f|
edc "G" d3|Bcd "Em"efe|efe edc|"G"ded "D"=cAF|"Em"GEE E3:|
